icons/evernote-fill.svg

<svg viewBox="0 0 24 24" fill="currentColor" xmlns="http://www.w3.org/2000/svg">
    <path d="M8.63007 7.75444C8.41531 7.95499 8.08524 7.97086 7.88803 7.97086H5.77723C5.16722 7.97086 4.80372 7.97086 4.55721 8.00429C4.42435 8.021 4.25973 8.08785 4.177 8.12128C4.14358 8.13715 4.14358 8.12128 4.16029 8.10456L8.97602 3.16516C8.99273 3.14845 9.00944 3.14845 8.99273 3.18187C8.9593 3.2646 8.89413 3.43089 8.87741 3.56376C8.84399 3.81277 8.84399 4.17878 8.84399 4.7938V7.00571C8.84399 7.20626 8.82728 7.53884 8.63007 7.75444ZM13.3129 21.9384C12.7531 21.5724 12.4556 21.0902 12.3403 20.7911C12.2216 20.5006 12.1601 20.1899 12.1589 19.8761C12.1603 18.4916 13.2813 17.3691 14.6658 17.3658C15.0778 17.3658 15.4079 17.6984 15.4079 18.1137C15.4097 18.383 15.2641 18.6318 15.0285 18.7622C14.9458 18.8123 14.8304 18.8457 14.7477 18.8625C14.6658 18.8792 14.3525 18.9126 14.2045 19.0446C14.0391 19.1783 13.9071 19.3939 13.9071 19.6271C13.9071 19.8761 14.0057 20.1092 14.1711 20.2755C14.4678 20.5747 14.8639 20.7409 15.2925 20.7409C15.8327 20.739 16.3499 20.5224 16.7303 20.1388C17.1107 19.7553 17.3231 19.2363 17.3206 18.6962C17.3206 17.6817 16.6446 16.7834 15.7538 16.3848C15.6218 16.318 15.4079 16.2678 15.2098 16.2177C15.046 16.184 14.881 16.1564 14.7151 16.135C14.0224 16.0514 12.291 15.5032 12.1748 13.9573C12.1748 13.9573 11.6642 16.2845 10.6414 16.9163C10.5428 16.9664 10.4108 17.0165 10.2621 17.05C10.1141 17.0834 9.94953 17.1001 9.89939 17.1001C8.23398 17.1995 6.46913 16.6673 5.24911 15.4038C5.24911 15.4038 4.42435 14.7219 3.99567 12.81C3.89706 12.3437 3.69902 11.5123 3.5837 10.7309C3.53357 10.4485 3.51685 10.2321 3.50098 10.0324C3.50098 9.21762 3.99567 8.66945 4.62239 8.58672H7.98663C8.56322 8.58672 8.89413 8.43631 9.10805 8.23659C9.38882 7.97086 9.45483 7.58815 9.45483 7.13941V3.73005V3.63144C9.53589 3.01558 10.0816 2.5 10.8888 2.5H11.2849C11.4495 2.5 11.6475 2.51671 11.8289 2.53343C11.9609 2.55014 12.0762 2.58356 12.2742 2.6337C13.2803 2.88272 13.4943 3.91388 13.4943 3.91388C13.4943 3.91388 15.3911 4.24646 16.3479 4.41276C17.2546 4.57905 19.4983 4.72862 19.9261 7.00655C20.9322 12.4273 20.3222 17.6817 20.2729 17.6817C19.5634 22.8033 15.3418 22.5534 15.3418 22.5534C14.6175 22.5681 13.9072 22.3528 13.3129 21.9384ZM15.9351 11.6292C15.9017 11.7128 15.8691 11.8122 15.8858 11.8616C15.9025 11.9117 15.936 11.9284 15.9686 11.9451C16.1666 12.0454 16.4958 12.0947 16.9747 12.1448C17.4526 12.195 17.7827 12.2284 17.9966 12.195C18.0301 12.195 18.0635 12.1783 18.0961 12.1281C18.1295 12.078 18.1128 11.9777 18.1128 11.895C18.0626 11.4462 17.6507 11.1137 17.1067 11.0468C16.5619 10.9967 16.1006 11.2139 15.9351 11.6292Z"/>
</svg>

<svg xmlns="http://www.w3.org/2000/svg" viewBox="0 0 24 24">
    <g>
        <path fill="none" d="M0 0h24v24H0z"/>
        <path fill-rule="nonzero" d="M8.63 7.754c-.216.201-.546.217-.743.217h-2.11c-.61 0-.974 0-1.22.033-.134.017-.298.084-.381.117-.033.016-.033 0-.017-.016l4.816-4.94c.017-.017.033-.017.017.017a1.734 1.734 0 0 0-.116.382c-.033.249-.033.615-.033 1.23v2.212c0 .2-.017.533-.214.748zm4.682 14.184c-.56-.366-.857-.848-.973-1.147a2.443 2.443 0 0 1-.181-.915 2.513 2.513 0 0 1 2.507-2.51c.412 0 .742.332.742.748a.735.735 0 0 1-.38.648.946.946 0 0 1-.28.1c-.082.017-.396.05-.543.183a.776.776 0 0 0-.298.582.92.92 0 0 0 .264.649c.297.299.693.465 1.122.465a2.036 2.036 0 0 0 2.028-2.045c0-1.014-.676-1.913-1.567-2.311-.132-.067-.346-.117-.544-.167a6.719 6.719 0 0 0-.495-.083c-.693-.084-2.424-.632-2.54-2.178 0 0-.51 2.328-1.534 2.96-.098.05-.23.1-.379.133-.148.033-.312.05-.363.05-1.665.1-3.43-.433-4.65-1.696 0 0-.825-.682-1.253-2.594-.099-.466-.297-1.298-.412-2.08-.05-.281-.067-.498-.083-.698 0-.814.495-1.363 1.121-1.445h3.365c.576 0 .907-.15 1.121-.35.28-.266.347-.649.347-1.098V3.631c.08-.615.627-1.131 1.434-1.131h.396c.165 0 .363.017.544.033.132.017.247.05.445.1 1.006.25 1.22 1.28 1.22 1.28l2.854.5c.907.166 3.15.316 3.578 2.594 1.006 5.42.396 10.675.347 10.675-.71 5.121-4.931 4.871-4.931 4.871a3.426 3.426 0 0 1-2.029-.615zm2.622-10.309c-.033.084-.066.183-.05.233.018.05.051.066.084.083.198.1.527.15 1.006.2.478.05.808.083 1.022.05.033 0 .067-.017.1-.067s.016-.15.016-.233c-.05-.449-.462-.781-1.006-.848-.545-.05-1.006.167-1.172.582z"/>
    </g>
</svg>
